X: 1
T: The Maids Of Castlebar
R: reel
M: 4/4
L: 1/8
K: Dmaj
ABc||dD (3DDD EDB,E|DEFA BAFA|d2cd (3Bcd AF|DEFD EDB,D|
FD (3DDD EDB,E|DEFA BAFA|dfec dBAG|FDEF D2Bc|
dD (3DDD EDB,E|DEFA BAFA|dDcD BDAD|DEFD EDB,D|
FD (3DDD EDB,E|DEFA BAFA|dfec dBAG|FDEF D4|
|:{^g}a2^ga fd (3ddd|fdad fddf|(3gfe be geef|(3gfe be geeg|
~f3a ~g3e|fdec dcBA|Bcde (3f^ga ec|dBAG FDD2:||


Tune 1949	Setting 22790

